images/icon/men.svg

<svg xmlns="http://www.w3.org/2000/svg" width="1024" height="1024" class="colorable-icon" overflow="visible" viewBox="50 -20 924 1064"><g fill="none" stroke="#000" stroke-linecap="round" stroke-linejoin="round" stroke-width="45"><path d="M701.757 450.031c-9.749 37.548-16.083 55.644-21.754 69.094-14.337 27.088-35.555 56.958-78.24 91.726-16.572 10.288-32.292 17.901-43.504 22.156-11.721 3.351-22.504 5.553-35.869 7.042-13.551.355-26.505-.432-50.532-4.818-23.466-8.014-44.882-19.096-61.739-30.686l-28.031-23.456M726.59 292.686c23.419 26.781 28.146 34.377 31.155 43.597 1.29 9.102 1.544 18.086.203 31.508-3.213 18.022-6.803 31.485-12.546 45.073-5.757 9.265-13.461 18.3-22.552 25.792l-21.093 11.375m-323.7 125.427c-24.42-35.835-32.517-49.809-38.66-62.296q-9.534-24.801-18.858-62.954m0 0c-11.575-5.098-21.417-11.02-30.568-18.556-6.727-7.308-12.898-16.108-18.138-26.451-4.025-11.596-7.222-25.463-9.792-43.728-.293-7.957 1.052-22.696 4.084-35.14 2.589-4.626 8.04-10.447 14.615-14.958l14.747-8.132m333.947-166.365c-25.7 20.537-44.061 32.716-66.74 44.188-22.385 7.831-40.57 11.664-58.621 13.674-22.461.858-67.247.953-85.177 2.25-22.349 4.492-35.694 8.953-44.66 12.875-8.808 4.813-17.804 11.08-26.618 19.196-7.325 8.995-12.843 18.123-16.882 27.12l-9.481 32.853"/><path d="M726.59 292.686c4.429-38.891 6.468-72.677 6.805-104.082-1.424-20.523-5.137-40.486-10.911-57.839-8.934-17.785-19.125-32.199-28.831-42.481-8.207-6.661-35.113-22.694-48.359-39.057-10.823-10.004-24.371-19.327-40.813-27.731-24.494-8.463-51.768-14.102-84.277-17.201-29.281-.148-56.787 2.032-78.64 6.196-23.127 7.38-48.296 19.092-73.26 34.847-19.528 15.518-35.292 31.563-49.408 50.513-12.612 23.116-20.727 43.487-26.894 65.47-4.008 24.31-4.725 40.127-2.481 78.13l5.966 63.792M57.454 895.951c2.57-22.299 5.981-35.487 9.918-46.383 5.49-11.514 11.872-22.354 19.89-33.621 7.925-9.093 22.742-22.56 41.178-34.728q26.461-13.495 66.884-30.953m457.159-79.006-8.035-95.177m9.122 104.931a154.36 154.36 0 0 1-284.321 1.635m8.658-105.094-7.165 93.052"/><path d="M629.472 136.836a219.82 219.82 0 0 1 68.173 126.937M49.382 1020l8.072-124.049m917.164 123.679-9.074-122.545m-770.22-146.819 169.749-76.694m600.471 223.513c6.289-56.947-63.777-123.458-120.729-138.53m0 0-187.392-85.002"/></g></svg>

<svg xmlns="http://www.w3.org/2000/svg" width="1024" height="1024" viewBox="50 -20 924 1064" class="colorable-icon" data-export-recolorable-svg="true" overflow="visible">
<g fill="none" stroke="black" stroke-width="45" stroke-linecap="round" stroke-linejoin="round">
<path d="M 701.757,450.031 C 692.008,487.579 685.674,505.675 680.003,519.125 C 665.666,546.213 644.448,576.083 601.763,610.851 C 585.191,621.139 569.471,628.752 558.259,633.007 C 546.538,636.358 535.755,638.56 522.39,640.049 C 508.839,640.404 495.885,639.617 471.858,635.231 C 448.392,627.217 426.976,616.135 410.119,604.545 L 382.088,581.089" data-line="nan" stroke-width="45.0"></path>
<path d="M 726.59,292.686 C 750.009,319.467 754.736,327.063 757.745,336.283 C 759.035,345.385 759.289,354.369 757.948,367.791 C 754.735,385.813 751.145,399.276 745.402,412.864 C 739.645,422.129 731.941,431.164 722.85,438.656 L 701.757,450.031" data-line="nan" stroke-width="45.0"></path>
<path d="M 378.057,575.458 C 353.637,539.623 345.54,525.649 339.397,513.162 Q 329.863,488.361 320.539,450.208" data-line="nan" stroke-width="45.0"></path>
<path d="M 320.539,450.208 C 308.964,445.11 299.122,439.188 289.971,431.652 C 283.244,424.344 277.073,415.544 271.833,405.201 C 267.808,393.605 264.611,379.738 262.041,361.473 C 261.748,353.516 263.093,338.777 266.125,326.333 C 268.714,321.707 274.165,315.886 280.74,311.375 L 295.487,303.243" data-line="nan" stroke-width="45.0"></path>
<path d="M 629.434,136.878 C 603.734,157.415 585.373,169.594 562.694,181.066 C 540.309,188.897 522.124,192.73 504.073,194.74 C 481.612,195.598 436.826,195.693 418.896,196.99 C 396.547,201.482 383.202,205.943 374.236,209.865 C 365.428,214.678 356.432,220.945 347.618,229.061 C 340.293,238.056 334.775,247.184 330.736,256.181 L 321.255,289.034" data-line="nan" stroke-width="45.0"></path>
<path d="M 726.59,292.686 C 731.019,253.795 733.058,220.009 733.395,188.604 C 731.971,168.081 728.258,148.118 722.484,130.765 C 713.55,112.98 703.359,98.566 693.653,88.284 C 685.446,81.623 658.54,65.59 645.294,49.227 C 634.471,39.223 620.923,29.9 604.481,21.496 C 579.987,13.033 552.713,7.394 520.204,4.295 C 490.923,4.147 463.417,6.327 441.564,10.491 C 418.437,17.871 393.268,29.583 368.304,45.338 C 348.776,60.856 333.012,76.901 318.896,95.851 C 306.284,118.967 298.169,139.338 292.002,161.321 C 287.994,185.631 287.277,201.448 289.521,239.451 L 295.487,303.243" data-line="nan" stroke-width="45.0"></path>
<path d="M 57.454,895.951 C 60.024,873.652 63.435,860.464 67.372,849.568 C 72.862,838.054 79.244,827.214 87.262,815.947 C 95.187,806.854 110.004,793.387 128.44,781.219 Q 154.901,767.724 195.324,750.266" data-line="nan" stroke-width="45.0"></path><path d="M 652.483,671.26 L 644.448,576.083" data-line="0.0" stroke-width="45.0"></path><path d="M 653.570442765589,681.0143943379596 A 154.36032236193623,154.36032236193623 0 0,1 369.2490138045323,682.6486522901619" data-line="1.0" stroke-width="45.0"></path>
<path d="M 377.907,577.555 L 370.742,670.607" data-line="2.0" stroke-width="45.0"></path><path d="M 629.4722597508743,136.83643686153198 A 219.81872056008163,219.81872056008163 0 0,1 697.6447111229442,263.7732805526404" data-line="4.0" stroke-width="45.0"></path><path d="M 49.382,1020.0 L 57.454,895.951" data-line="10.0" stroke-width="45.0"></path><path d="M 974.618,1019.63 L 965.544,897.085" data-line="11.0" stroke-width="45.0"></path><path d="M 195.324,750.266 L 365.073,673.572" data-line="13.0" stroke-width="45.0"></path>
<path d="M 965.544,897.085 C 971.8327956526504,840.1376993278083 901.7670164971104,773.6267398286445 844.815,758.555" data-line="14.0" stroke-width="45.0"></path><path d="M 844.815,758.555 L 657.423,673.553" data-line="15.0" stroke-width="45.0"></path>
</g>
</svg>
